X: 40499
T: Tommy Coen's
R: reel
M: 4/4
K: Dminor
G2 dG (3GGG) dG|F2 cF dF cF|G2 dG (3GGG) dG|FGAc dAcA|G2 dG (3GG
G) dG|F2 cF dF cF|GF DEFG Ac|dAcA G2 z:|
dg (3gfg) dgge|f2 af cfaf|dg (3gfg) dgge|fdcA FGAc|dg (3gfg) dgge|f2 a
f cfaf|d3 e f3 g|1 fdcA FGAc:|2 fdcA FGAF ]||

